X:178
T: Holvinger Mdchen (2-81) S. 239
N: P0953
O: Lothringen
S: PINCK, Louis: Verklingende Weisen, Bd 2, Metz 1928]
N: Tochter will von zuhause mit Reiter weg
R: ???]
M: 2/4
L: 1/8
K: G
D | G2F2 | G2A
G | BGdB | A3z
A2dc | BAGE | D3z
G2A2 | B2BB | A2
B2 | dcBA | G3

